X: 398
T:The mill of Kylemore
R:Reel
C:Josie McDermott
Z:Transcribed by Andrew Pickering
M:4/4
L:1/8
K:G
E|DGGF GABG|AGFG AB (3cBA|G2 GF GABd|cAFA G2 GF|
DG G2 BGAG|FGAB (3cBA Bc|d2 eg fdcA|(3Bcd cA G3:|
B|dg g2 bg g2|abag fdcA|Bgfg egdB|GBAG FDBc|
|1 dg g2 bg g2|abag fdcA|d2 eg fdcA|(3Bcd cA G3:|
|2 dg g2 bg g2|abag fdcA|defa gfdc|(3Bcd cA G3|]
<end>
<start>
